X: 487
T: Cotton Baggin'
B: jims roots
M:C|
L:1/8
R: Reel
Q: 1/4=100
K:G
V:1 
%D:Columbia 15404-D (78 RPM), Gid Tanner and His Skillet Lickers (1929)
%D:Document DOCD 8058, The Skillet Lickers vol. 3
|:+slide+g2-|gaba baba|gfga gede|gfgg bgbg|agab afdf|
afaf abag|fefg fgfe|dfdf bgaf|[B2g2][Bg][Bg] [B2g2]:|]
V:G_B 
-|[G=B]ABc dcBA|[G2B2][GA][GB] [G2B2] [G2B2]-|[GB]ABc dcBA|+slide+[A2A2][AA][AA] [A2A2][A2A2]-|
V:AA 
Bcd edcB|[A2A2][AA][AA] [A2A2]AF|DFAB cAFD|[G2B2][GB][GB][G2B2]:|
% abcbook-tune_id 6298c245ec79bcf1ee970c3d


% abcbook-boost 0
% abcbook-tablature 
% abcbook-transpose 
% abcbook-lastupdated 1654178373798
% abcbook-soundfonts 
% abcbook-repeats 1


